!!!COM:	Stravinsky
!!!OTL:	384_Str-25/11/[3]1-7
**kern	**kern	**kern
*part3	*part2	*part1
*staff3	*staff2	*staff1
*I"Clarinet in A	*I"Clarinet in A	*I"Flute
*I'Cl.	*I'Cl.	*I'Fl.
*clefG2	*clefG2	*clefG2
*k[f#c#]	*k[f#c#]	*k[f#c#]
*D:	*D:	*D:
*M3/4	*M3/4	*M3/4
=1	=1	=1
4r	4D	4r
.	.	(16qqddd/
.	.	16qqddd/
(4f#'	(4d'	2fff#)
4f#')	4d')	.
=2	=2	=2
.	.	(16qqccc#/
.	.	16qqccc#/
4r	4E	2eee#X)
(4g'	(4e'	.
.	.	(16qqeee#/
.	.	16qqeee#/
4g')	4e')	[4ggg)
=3	=3	=3
4r	4E	4ggg]
.	.	(16qqeee#X/
.	.	16qqeee#X/
(4g'	(4e'	2gg#X)
4g')	4e')	.
=4	=4	=4
!!linebreak:original
.	.	(16qqeeen/
.	.	16qqeeen/
4r	4D	2ggg)
(4f#'	(4d'	.
.	.	(16qqeee#X/
.	.	16qqeee#X/
4f#')	4d')	[4aa)
=5	=5	=5
4r	4D	4aa]
.	.	(16qqddd/
.	.	16qqddd/
(4f#'	(4d'	2fff#)
4f#')	4d')	.
=6	=6	=6
.	.	(16qqeee/
.	.	16qqeee/
4r	4E	2ggg#X)
(4g'	(4e'	.
.	.	(16qqggg#/
.	.	16qqggg#/
4g')	4e')	[4bbb)
=7	=7	=7
4r	4E	4bbb]
.	.	(16qqggg#X/
.	.	16qqggg#X/
(4g'	(4e'	2aa)
4g')	4e')	.
==	==	==
*-	*-	*-
!!!system-decoration: [(s1,s2,s3)]
!!!ONB: Converted from MusicXML on 2019/06/05
